material/.icons/material/phone-return.svg

<svg xmlns="http://www.w3.org/2000/svg" viewBox="0 0 24 24"><path d="M21 6v5h-1.5V7.5h-5.63l2.43 2.43L15.24 11 11 6.75l4.24-4.25 1.06 1.07L13.87 6H21M8.82 8.58c.26-.26.35-.65.24-1C8.69 6.42 8.5 5.22 8.5 4a1 1 0 00-1-1H4a1 1 0 00-1 1 17 17 0 0017 17 1 1 0 001-1v-3.5a1 1 0 00-1-1c-1.21 0-2.42-.19-3.57-.57a.997.997 0 00-1 .24l-2.2 2.2a15.097 15.097 0 01-6.59-6.59l2.18-2.2z"/></svg>

<?xml version="1.0" encoding="UTF-8"?><!DOCTYPE svg PUBLIC "-//W3C//DTD SVG 1.1//EN" "http://www.w3.org/Graphics/SVG/1.1/DTD/svg11.dtd"><svg xmlns="http://www.w3.org/2000/svg" xmlns:xlink="http://www.w3.org/1999/xlink" version="1.1" id="mdi-phone-return" width="24" height="24" viewBox="0 0 24 24"><path d="M21,6V11H19.5V7.5H13.87L16.3,9.93L15.24,11L11,6.75L15.24,2.5L16.3,3.57L13.87,6H21M8.82,8.58C9.08,8.32 9.17,7.93 9.06,7.58C8.69,6.42 8.5,5.22 8.5,4A1,1 0 0,0 7.5,3H4A1,1 0 0,0 3,4A17,17 0 0,0 20,21A1,1 0 0,0 21,20V16.5A1,1 0 0,0 20,15.5C18.79,15.5 17.58,15.31 16.43,14.93C16.08,14.82 15.69,14.91 15.43,15.17L13.23,17.37C10.39,15.92 8.09,13.62 6.64,10.78L8.82,8.58Z" /></svg>
